icons/1_Primary/Scaleway.svg

<svg width="1024" height="1024" fill="none" xmlns="http://www.w3.org/2000/svg"><g clip-path="url(#a)"><path d="M512 1024c282.77 0 512-229.23 512-512S794.77 0 512 0 0 229.23 0 512s229.23 512 512 512Z" fill="#8C72BD"/><path d="M610.24 493v122a37.758 37.758 0 0 1-32.85 36.05h-85.34a30.508 30.508 0 0 1-27.95-26 23.225 23.225 0 0 1 0-3.84 29.232 29.232 0 0 1 29.23-29h37.12a21.331 21.331 0 0 0 21.33-21.33v-77.23A29.874 29.874 0 0 1 577 464h3.63a29.23 29.23 0 0 1 29.65 28.8.582.582 0 0 0-.04.2Zm-137.81 37.13v-76.58a21.333 21.333 0 0 1 21.33-21.33h39.47A29.232 29.232 0 0 0 562.45 403a21.36 21.36 0 0 0 0-3.63 30.932 30.932 0 0 0-30.08-25.6h-84.48a38.61 38.61 0 0 0-33.71 35.41v121.6A29.231 29.231 0 0 0 443.41 560h4.48a29.874 29.874 0 0 0 24.54-29.87Zm256-91.52v244A96.639 96.639 0 0 1 639.89 768h-161.7a182.823 182.823 0 0 1-182.61-182.83V352.86a96.87 96.87 0 0 1 7.369-37.066 96.867 96.867 0 0 1 20.994-31.424A96.846 96.846 0 0 1 392.43 256H545.6a182.61 182.61 0 0 1 182.61 182.61h.22Zm-58.45 0a124.37 124.37 0 0 0-124.17-124.15H392.43a38.18 38.18 0 0 0-27.073 11.044 38.185 38.185 0 0 0-11.327 26.956v232.71A124.368 124.368 0 0 0 478.19 708.9H636.9a38.188 38.188 0 0 0 32.85-31.57l.23-238.72Z" fill="#fff"/></g><defs><clipPath id="a"><path fill="#fff" d="M0 0h1024v1024H0z"/></clipPath></defs></svg>

<svg width="1024" height="1024" viewBox="0 0 1024 1024" fill="none" xmlns="http://www.w3.org/2000/svg">
<g clip-path="url(#clip0_2_3408)">
<path d="M512 1024C794.77 1024 1024 794.77 1024 512C1024 229.23 794.77 0 512 0C229.23 0 0 229.23 0 512C0 794.77 229.23 1024 512 1024Z" fill="#8C72BD"/>
<path d="M610.24 493V615C609.911 623.923 606.43 632.44 600.416 639.04C594.402 645.64 586.244 649.895 577.39 651.05H492.05C485.129 650.541 478.588 647.688 473.507 642.961C468.425 638.234 465.107 631.916 464.1 625.05C463.994 623.772 463.994 622.488 464.1 621.21C464.161 613.498 467.267 606.122 472.742 600.69C478.217 595.258 485.617 592.21 493.33 592.21H530.45C536.107 592.21 541.533 589.963 545.533 585.963C549.533 581.962 551.78 576.537 551.78 570.88V493.65C551.746 486.509 554.271 479.592 558.897 474.153C563.524 468.713 569.946 465.112 577 464H580.63C588.381 463.888 595.859 466.859 601.419 472.26C606.98 477.661 610.167 485.049 610.28 492.8C610.253 492.873 610.24 492.94 610.24 493ZM472.43 530.13V453.55C472.43 447.893 474.677 442.468 478.677 438.467C482.678 434.467 488.103 432.22 493.76 432.22H533.23C540.979 432.217 548.41 429.138 553.889 423.659C559.368 418.179 562.447 410.749 562.45 403C562.553 401.792 562.553 400.578 562.45 399.37C561.208 392.265 557.521 385.818 552.029 381.143C546.536 376.468 539.582 373.86 532.37 373.77H447.89C439.048 374.876 430.861 379.006 424.716 385.46C418.572 391.914 414.85 400.294 414.18 409.18V530.78C414.183 538.531 417.264 545.963 422.745 551.442C428.226 556.922 435.66 560 443.41 560H447.89C454.857 558.737 461.149 555.041 465.644 549.57C470.138 544.099 472.544 537.21 472.43 530.13ZM728.43 438.61V682.61C725.884 704.91 715.656 725.629 699.5 741.211C683.344 756.792 662.268 766.264 639.89 768H478.19C429.738 767.944 383.289 748.657 349.049 714.376C314.809 680.094 295.577 633.622 295.58 585.17V352.86C295.579 340.141 298.083 327.546 302.949 315.794C307.816 304.042 314.95 293.365 323.943 284.37C332.937 275.376 343.614 268.241 355.365 263.373C367.116 258.505 379.711 256 392.43 256H545.6C594.031 256 640.479 275.239 674.725 309.485C708.971 343.731 728.21 390.179 728.21 438.61H728.43ZM669.98 438.61C669.922 405.698 656.82 374.15 633.546 350.88C610.272 327.609 578.722 314.513 545.81 314.46H392.43C387.413 314.432 382.44 315.393 377.795 317.288C373.149 319.183 368.923 321.975 365.357 325.504C361.791 329.033 358.955 333.23 357.012 337.855C355.068 342.48 354.055 347.443 354.03 352.46V585.17C354.199 618.008 367.348 649.446 390.608 672.625C413.868 695.805 445.352 708.845 478.19 708.9H636.9C645.041 707.866 652.632 704.236 658.548 698.55C664.465 692.864 668.393 685.423 669.75 677.33L669.98 438.61Z" fill="white"/>
</g>
<defs>
<clipPath id="clip0_2_3408">
<rect width="1024" height="1024" fill="white"/>
</clipPath>
</defs>
</svg>
